X:1
T:Jesus Is Calling
T:Jesus Is Calling
T:Fred S. Shepard
T:Fred S. Shepard, 1896
T:Public Domain Courtesy of the Cyber Hymnal™
C:Fred S. Shepard
Z:Public Domain
Z:Courtesy of the Cyber Hymnal™
%%score ( 1 2 ) ( 3 4 )
L:1/8
Q:1/4=85
M:6/8
K:Ab
V:1 treble 
V:2 treble 
V:3 bass 
V:4 bass 
V:1
 [Ec][DB][CA] [A,C][CE][EA] | [EG][E^F][EG] [Ed]3 | [Ed][EB][EG] [DF][DE][B,D] | %3
w: 1.~Je- sus, the Sav- ior, is|call- ing for thee,|“Come, hea- vy la- den one,|
w: 2.~Ye who are wan- der- ing|now far a- way,|Heed the blest mes- sage— why|
w: 3.~Je- sus still seeks thee a-|far from the fold,|Out on the moun- tain so|
 [A,C][CE][CA] [Ec]3 | [Ee][Ed][Ec] [Ec][EB][EA] | [FA][EG][DF] [Fd]3 | [Ec][EB][EA] [DE][DF][DE] | %7
w: come un- to Me;|I will thy soul from its|bur- dens set free”—|Je- sus is call- ing for|
w: lon- ger de- lay?|Why from His pre- sence so|long wilt thou stay?|Je- sus is call- ing for|
w: dark and so cold;|Turn to Him now— in His|arms He’ll en- fold—|Je- sus is call- ing for|
 [CA]3- [CA]2 |:[M:9/8]"^Refrain" ABA | G3 [Ed]2 z FGF |1 E3 [Cc]2 z [Ec][Ed][Ee] | %11
w: thee! *||||
w: thee! *|Je- sus is|call- ing, ten- der- ly|call- ing, Je- sus is|
w: Thee! *||||
 [=DA]3 [Dc]2 z [Dc][DB][DA] | [EB-]3 [DB]2 z :|2 [Ec][Ed][Ee] || [EA]3 [Ac]2 z [Ec][EB]E | %15
w: ||||
w: call- ing, call- ing for|Thee; Je-|sus is call-|ing, call- ing for Thee.|
w: ||||
 [EA]6 |] %16
w: |
w: |
w: |
V:2
 x6 | x6 | x6 | x6 | x6 | x6 | x6 | x5 |:[M:9/8] x3 | (EEE) x6 |1 (CCC) x6 | x9 | x6 :|2 x3 || %14
 x8 E | x6 |] %16
V:3
 [A,,A,][A,,A,][A,,A,] [A,,E,][A,,A,][A,,C] | [E,B,][E,=A,][E,B,] [E,B,]3 | %2
w: ~ ~ ~ ~ ~ ~|~ ~ ~ ~|
 [E,B,][E,D][E,B,] [E,G,][E,G,][E,G,] | [A,,E,][A,,A,][A,,A,] [A,,A,]3 | %4
w: ~ ~ ~ ~ ~ ~|~ ~ ~ ~|
 [A,C][A,B,]A, [A,,A,][B,,G,][C,A,] | [D,A,][D,A,][D,A,] [D,A,]3 | %6
w: ~ ~ ~ ~ ~ ~|~ ~ ~ ~|
 [E,A,][E,D][E,C] [E,G,][E,A,][E,B,] | [A,,A,]3- [A,,A,]2 |:[M:9/8] z3 | %9
w: ~ ~ ~ ~ ~ ~|~ *||
 [E,D][E,D][E,D] [E,G,]2 z4 |1 [A,,A,][A,,A,][A,,A,] [A,,E,]2 z [A,,A,][A,,A,][A,,A,] | %11
w: call- ing for thee,|call- ing for thee, * * *|
 [F,A,]3 [B,,A,]2 z [B,,A,][B,,A,][B,,F,] | [E,G,]3- [E,G,]2 z :|2 A,[A,B,][A,C] || %14
w: |||
 [E,C]3 [E,E]2 z [E,D][E,D][E,D] | [A,,A,C]6 |] %16
w: ||
V:4
 x6 | x6 | x6 | x6 | x2 A, x3 | x6 | x6 | x5 |:[M:9/8] x3 | x9 |1 x9 | x9 | x6 :|2 A, x2 || x9 | %15
 x6 |] %16

